X:77
T:a Trip to Wigan
O:england
M:4/4
A:North-West
R:Reel
K:G
D|\
GBdB Gcec| GBdB AFED| GBdB Gcec| dcBA B2G::
f|\
gfgd edeB| cBcA a2ef| gfgd edeB| cBAd B2G:|
